;TIME:7470.55
;Filament used:13.11177m
;Layer height:0.200
; HEADER_BLOCK_START
; generated by Creality_Print V5.1.6.10471 on 2024-12-17 at 11:15:25
; total layer number: 507
; filament_density: 1.24
; filament_diameter: 1.75
; max_z_height: 75.00
; HEADER_BLOCK_END

; MINX = 70.85
; MINY = 77.38
; MINZ = 0.00
; MAXX = 149.51
; MAXY = 142.33
; MAXZ = 75.00

; THUMBNAIL_BLOCK_START

;
; THUMBNAIL_BLOCK_END

; THUMBNAIL_BLOCK_START

;
; THUMBNAIL_BLOCK_END

; external perimeters extrusion width = 0.42mm
; perimeters extrusion width = 0.45mm
; infill extrusion width = 0.45mm
; solid infill extrusion width = 0.42mm
; top infill extrusion width = 0.42mm
; support material extrusion width = 0.40mm
; first layer extrusion width = 0.50mm

; EXECUTABLE_BLOCK_START
M73 P0 R124
M201 X5000 Y5000 Z500 E5000
M203 X500 Y500 Z30 E100
M204 P5000 R2500 T5000 ; sets acceleration (P, T) and retract acceleration (R), mm/sec^2
M205 X10.00 Y10.00 Z0.40 E5.00 ; sets the jerk limits, mm/sec
;TYPE:Custom
M220 S100 ;Reset Feedrate 
M221 S100 ;Reset Flowrate 
 
M140 S50 ;Set final bed temp 
G28 ;Home 
 
G92 E0 ;Reset Extruder 
G1 Z2.0 F3000 ;Move Z Axis up 
M104 S190 ;Set final nozzle temp 
G1 X-2.1 Y20 Z0.28 F5000.0 ;Move to start position 
M190 S50 ;Wait for bed temp to stabilize 
M109 S190 ;Wait for nozzle temp to stabilize 
G1 X-2.1 Y145.0 Z0.28 F1500.0 E15 ;Draw the first line 
G1 X-2.4 Y145.0 Z0.28 F5000.0 ;Move to side a little 
G1 X-2.4 Y20 Z0.28 F1500.0 E30 ;Draw the second line 
G92 E0  ;Reset Extruder 
G1 E-1.0000 F1800 ;Retract a bit 
G1 Z2.0 F3000 ;Move Z Axis up 
G1 E0.0000 F1800
G90
G21
M83 ; use relative distances for extrusion
M106 S0
;LAYER_CHANGE
;Z:0.2
;HEIGHT:0.2
;BEFORE_LAYER_CHANGE
;0.2
G92 E0

G1 E-1.2 F2400
;_SET_FAN_SPEED_CHANGING_LAYER
M204 P500
M205 X10 Y10
; printing object first-attempt.stl id:0 copy 0
M204 T500
G1 X137.825 Y93.599 F9000
G1 Z.2
G1 E1.2 F1800
;TYPE:Support
;WIDTH:0.5
G1 X132.277 Y90.396 E.2313
G1 X131.797 Y90.525 E.01795
G1 X129.42 Y94.641 E.17164
G1 X128.254 Y94.641 E.04211
G1 X128.254 Y87.928 E.24241
G1 X137.825 Y87.928 E.34557
G1 X137.825 Y93.53 E.2023
G1 E-1.2 F2400
;WIPE_START
G1 F1800
G1 X137.825 Y91.53
;WIPE_END
G1 X134.164 Y92.609 Z.4 F9000
G1 X128.665 Y94.23 Z.4
G1 Z.2
G1 E1.2 F1800
G1 X128.665 Y88.339 E.21271
G1 X137.413 Y88.339 E.31587
G1 X137.413 Y92.886 E.16419
G1 X132.335 Y89.954 E.21172
G1 X131.526 Y90.171 E.03025
G1 X129.182 Y94.23 E.16922
G1 X128.665 Y94.23 E.01868
G1 X129.173 Y92.553 F9000
G1 F1800
G1 X129.173 Y88.847 E.13383
G1 X136.906 Y88.847 E.27919
G1 X136.906 Y92.007 E.1141
G1 X132.407 Y89.409 E.18756
G1 X131.191 Y89.735 E.04544
G1 X129.512 Y92.644 E.12128
G1 X129.173 Y92.553 E.01266
G1 E-1.2 F2400
;WIPE_START
G1 F1800
G1 X129.512 Y92.644
G1 X130.336 Y91.216
;WIPE_END
G1 X133.848 Y89.722 Z.4 F9000
G1 X133.914 Y89.693 Z.4
G1 Z.2
G1 E1.2 F1800
G1 X134.005 Y89.355 E.01266
G1 X136.398 Y89.355 E.08638
G1 X136.398 Y91.127 E.064
G1 X133.914 Y89.693 E.10353
G1 X130.824 Y89.355 F9000
G1 F1800
G1 X130.02 Y90.749 E.05812
G1 X129.681 Y90.658 E.01266
G1 X129.681 Y89.355 E.04706
G1 X130.824 Y89.355 E.04129
G1 E-1.2 F2400
;WIPE_START
G1 F9000
G1 X129.681 Y89.355
G1 X129.681 Y90.211
;WIPE_END
G1 X132.517 Y92.764 Z.4
G1 X142.585 Y101.824 Z.4
G1 Z.2
G1 E1.2 F1800
;TYPE:Inner wall
;WIDTH:0.499999
G1 X134.302 Y97.042 E.34533
G1 X134.038 Y96.955 E.01004
G1 X133.782 Y96.973 E.00928
G1 X133.551 Y97.085 E.00928
G1 X133.366 Y97.293 E.01004
G1 X108.352 Y140.617 E1.80626
G1 X72.337 Y78.237 E2.60075
G1 X147.903 Y78.237 E2.72838
G1 X148.188 Y78.271 E.01038
G1 X148.462 Y78.441 E.01164
G1 X148.61 Y78.666 E.00972
G1 X148.653 Y78.952 E.01044
G3 X148.629 Y81.003 I-58.291 J.347 E.07407
G1 X148.475 Y81.313 E.01251
G1 X148.263 Y81.455 E.0092
G1 X147.968 Y81.522 E.01094
G1 X92.483 Y81.522 E2.00335
G2 X85.265 Y94.056 I.04 J8.368 E.6306
G1 X101.073 Y121.437 E1.14153
G1 X101.588 Y122.237 E.03436
G2 X115.589 Y121.512 I6.765 J-4.915 E.60034
G1 X132.506 Y92.211 E1.22161
G1 X148.342 Y101.354 E.66023
G1 X144.575 Y107.877 E.27199
M73 P0 R123
G1 X144.397 Y108.116 E.01074
G1 X144.163 Y108.242 E.00962
G1 X143.924 Y108.273 E.00871
G1 X143.649 Y108.21 E.01016
G3 X141.832 Y107.129 I19.489 J-34.831 E.07636
G1 X141.64 Y106.874 E.01153
G1 X141.61 Y106.553 E.01163
G1 X141.698 Y106.29 E.01003
G1 X143.511 Y103.15 E.1309
G1 X143.598 Y102.886 E.01004
G1 X143.579 Y102.63 E.00928
G1 X143.467 Y102.398 E.00928
G1 X143.26 Y102.213 E.01004
G1 X142.62 Y101.844 E.02667
G1 X143.031 Y102.609 F9000
;TYPE:Outer wall
G1 F1800
G1 X134.074 Y97.438 E.37344
G1 X133.9 Y97.415 E.00632
G1 X133.762 Y97.521 E.00632
G1 X108.352 Y141.531 E1.83485
G1 X71.545 Y77.78 E2.65792
G1 X147.903 Y77.78 E2.75696
G1 X148.328 Y77.829 E.01545
G1 X148.668 Y78 E.01374
G3 X149.045 Y78.51 I-.651 J.877 E.02324
G1 X149.11 Y78.953 E.01615
G1 X149.106 Y80.842 E.06821
G1 X149.027 Y81.295 E.01661
G1 X148.822 Y81.62 E.01389
G1 X148.578 Y81.82 E.01138
G3 X147.996 Y81.98 I-.579 J-.969 E.02206
G1 X92.495 Y81.98 E2.00391
G2 X85.66 Y93.828 I.025 J7.91 E.59654
G1 X101.463 Y121.198 E1.14113
G1 X101.945 Y121.952 E.0323
G2 X115.193 Y121.283 I6.407 J-4.623 E.5684
G1 X132.339 Y91.586 E1.23812
G1 X148.966 Y101.186 E.69323
G1 X144.971 Y108.106 E.2885
G1 X144.713 Y108.453 E.01562
G1 X144.45 Y108.634 E.01153
G1 X144.087 Y108.741 E.01366
G1 X143.711 Y108.719 E.01361
G1 X143.455 Y108.626 E.00982
G1 X141.794 Y107.668 E.06925
G1 X141.396 Y107.36 E.01817
G1 X141.206 Y107.037 E.01353
G1 X141.135 Y106.664 E.01371
G3 X141.288 Y106.085 I1.121 J-.013 E.02189
G1 X143.115 Y102.921 E.13191
G1 X143.138 Y102.748 E.00632
G1 X143.055 Y102.641 E.00487
G1 E-1.2 F2400
;WIPE_START
G1 F9000
G1 X141.325 Y101.638
;WIPE_END
G1 Z.4
G1 X147.918 Y78.351
G1 Z.4
G1 Z.2
G1 E1.2 F1800
;TYPE:Bottom surface
;WIDTH:0.502196
G1 F4800
G1 X148.264 Y78.697 E.01777
G3 X148.333 Y78.912 I-.32 J.221 E.00831
G1 X148.332 Y79.414 E.01822
G1 X147.474 Y78.557 E.04402
G1 X146.825 Y78.557 E.02356
G1 X148.331 Y80.063 E.07727
G1 X148.329 Y80.711 E.02352
G1 X146.175 Y78.557 E.11053
G1 X145.526 Y78.557 E.02356
G1 X148.132 Y81.163 E.13375
G3 X147.948 Y81.203 I-.163 J-.312 E.00691
G1 X147.522 Y81.203 E.01547
G1 X144.876 Y78.557 E.13575
G1 X144.227 Y78.557 E.02356
G1 X146.872 Y81.203 E.13575
G1 X146.223 Y81.203 E.02356
G1 X143.577 Y78.557 E.13575
G1 X142.927 Y78.557 E.02356
G1 X145.573 Y81.203 E.13575
G1 X144.924 Y81.203 E.02356
G1 X142.278 Y78.557 E.13575
G1 X141.628 Y78.557 E.02356
G1 X144.274 Y81.203 E.13575
G1 X143.625 Y81.203 E.02356
G1 X140.979 Y78.557 E.13575
G1 X140.329 Y78.557 E.02356
G1 X142.975 Y81.203 E.13575
G1 X142.326 Y81.203 E.02356
G1 X139.68 Y78.557 E.13575
G1 X139.03 Y78.557 E.02356
G1 X141.676 Y81.203 E.13575
G1 X141.027 Y81.203 E.02356
G1 X138.381 Y78.557 E.13575
G1 X137.731 Y78.557 E.02356
G1 X140.377 Y81.203 E.13575
G1 X139.728 Y81.203 E.02356
G1 X137.082 Y78.557 E.13575
G1 X136.432 Y78.557 E.02356
G1 X139.078 Y81.203 E.13575
G1 X138.429 Y81.203 E.02356
G1 X135.783 Y78.557 E.13575
G1 X135.133 Y78.557 E.02356
G1 X137.779 Y81.203 E.13575
G1 X137.13 Y81.203 E.02356
G1 X134.484 Y78.557 E.13575
G1 X133.834 Y78.557 E.02356
G1 X136.48 Y81.203 E.13575
G1 X135.831 Y81.203 E.02356
G1 X133.185 Y78.557 E.13575
G1 X132.535 Y78.557 E.02356
G1 X135.181 Y81.203 E.13575
G1 X134.532 Y81.203 E.02356
G1 X131.886 Y78.557 E.13575
G1 X131.236 Y78.557 E.02356
G1 X133.882 Y81.203 E.13575
G1 X133.233 Y81.203 E.02356
G1 X130.587 Y78.557 E.13575
G1 X129.937 Y78.557 E.02356
G1 X132.583 Y81.203 E.13575
G1 X131.934 Y81.203 E.02356
G1 X129.288 Y78.557 E.13575
G1 X128.638 Y78.557 E.02356
G1 X131.284 Y81.203 E.13575
G1 X130.635 Y81.203 E.02356
G1 X127.989 Y78.557 E.13575
G1 X127.339 Y78.557 E.02356
G1 X129.985 Y81.203 E.13575
G1 X129.336 Y81.203 E.02356
G1 X126.69 Y78.557 E.13575
G1 X126.04 Y78.557 E.02356
G1 X128.686 Y81.203 E.13575
G1 X128.037 Y81.203 E.02356
G1 X125.391 Y78.557 E.13575
G1 X124.741 Y78.557 E.02356
G1 X127.387 Y81.203 E.13575
G1 X126.738 Y81.203 E.02356
G1 X124.092 Y78.557 E.13575
G1 X123.442 Y78.557 E.02356
G1 X126.088 Y81.203 E.13575
G1 X125.438 Y81.203 E.02356
G1 X122.793 Y78.557 E.13575
G1 X122.143 Y78.557 E.02356
G1 X124.789 Y81.203 E.13575
G1 X124.139 Y81.203 E.02356
G1 X121.494 Y78.557 E.13575
G1 X120.844 Y78.557 E.02356
G1 X123.49 Y81.203 E.13575
G1 X122.84 Y81.203 E.02356
G1 X120.194 Y78.557 E.13575
G1 X119.545 Y78.557 E.02356
G1 X122.191 Y81.203 E.13575
G1 X121.541 Y81.203 E.02356
G1 X118.895 Y78.557 E.13575
G1 X118.246 Y78.557 E.02356
G1 X120.892 Y81.203 E.13575
G1 X120.242 Y81.203 E.02356
G1 X117.596 Y78.557 E.13575
G1 X116.947 Y78.557 E.02356
G1 X119.593 Y81.203 E.13575
G1 X118.943 Y81.203 E.02356
G1 X116.297 Y78.557 E.13575
G1 X115.648 Y78.557 E.02356
G1 X118.294 Y81.203 E.13575
G1 X117.644 Y81.203 E.02356
G1 X114.998 Y78.557 E.13575
G1 X114.349 Y78.557 E.02356
G1 X116.995 Y81.203 E.13575
G1 X116.345 Y81.203 E.02356
G1 X113.699 Y78.557 E.13575
G1 X113.05 Y78.557 E.02356
G1 X115.696 Y81.203 E.13575
G1 X115.046 Y81.203 E.02356
G1 X112.4 Y78.557 E.13575
G1 X111.751 Y78.557 E.02356
G1 X114.397 Y81.203 E.13575
G1 X113.747 Y81.203 E.02356
G1 X111.101 Y78.557 E.13575
G1 X110.452 Y78.557 E.02356
G1 X113.098 Y81.203 E.13575
G1 X112.448 Y81.203 E.02356
G1 X109.802 Y78.557 E.13575
G1 X109.153 Y78.557 E.02356
G1 X111.799 Y81.203 E.13575
G1 X111.149 Y81.203 E.02356
G1 X108.503 Y78.557 E.13575
G1 X107.854 Y78.557 E.02356
G1 X110.5 Y81.203 E.13575
G1 X109.85 Y81.203 E.02356
G1 X107.204 Y78.557 E.13575
G1 X106.555 Y78.557 E.02356
G1 X109.201 Y81.203 E.13575
G1 X108.551 Y81.203 E.02356
G1 X105.905 Y78.557 E.13575
G1 X105.256 Y78.557 E.02356
G1 X107.902 Y81.203 E.13575
G1 X107.252 Y81.203 E.02356
G1 X104.606 Y78.557 E.13575
G1 X103.957 Y78.557 E.02356
G1 X106.603 Y81.203 E.13575
G1 X105.953 Y81.203 E.02356
G1 X103.307 Y78.557 E.13575
G1 X102.658 Y78.557 E.02356
G1 X105.304 Y81.203 E.13575
G1 X104.654 Y81.203 E.02356
G1 X102.008 Y78.557 E.13575
G1 X101.359 Y78.557 E.02356
G1 X104.005 Y81.203 E.13575
G1 X103.355 Y81.203 E.02356
G1 X100.709 Y78.557 E.13575
G1 X100.06 Y78.557 E.02356
G1 X102.705 Y81.203 E.13575
G1 X102.056 Y81.203 E.02356
G1 X99.41 Y78.557 E.13575
G1 X98.761 Y78.557 E.02356
G1 X101.406 Y81.203 E.13575
G1 X100.757 Y81.203 E.02356
G1 X98.111 Y78.557 E.13575
G1 X97.461 Y78.557 E.02356
G1 X100.107 Y81.203 E.13575
G1 X99.458 Y81.203 E.02356
G1 X96.812 Y78.557 E.13575
G1 X96.162 Y78.557 E.02356
G1 X98.808 Y81.203 E.13575
G1 X98.159 Y81.203 E.02356
G1 X95.513 Y78.557 E.13575
G1 X94.863 Y78.557 E.02356
G1 X97.509 Y81.203 E.13575
G1 X96.86 Y81.203 E.02356
G1 X94.214 Y78.557 E.13575
G1 X93.564 Y78.557 E.02356
G1 X96.21 Y81.203 E.13575
G1 X95.561 Y81.203 E.02356
G1 X92.915 Y78.557 E.13575
G1 X92.265 Y78.557 E.02356
G1 X94.911 Y81.203 E.13575
G1 X94.262 Y81.203 E.02356
G1 X91.616 Y78.557 E.13575
G1 X90.966 Y78.557 E.02356
G1 X93.612 Y81.203 E.13575
G1 X92.963 Y81.203 E.02356
G1 X90.317 Y78.557 E.13575
G1 X89.667 Y78.557 E.02356
G1 X92.323 Y81.212 E.13624
G1 X91.706 Y81.245 E.02239
G1 X89.018 Y78.557 E.13794
G1 X88.368 Y78.557 E.02356
G1 X91.133 Y81.321 E.14183
G2 X90.588 Y81.426 I.245 J2.725 E.02014
G1 X87.719 Y78.557 E.14723
G1 X87.069 Y78.557 E.02356
G1 X90.072 Y81.559 E.15404
G2 X89.583 Y81.72 I.537 J2.443 E.01868
G1 X86.42 Y78.557 E.16232
G1 X85.77 Y78.557 E.02356
G1 X89.109 Y81.896 E.17132
G2 X88.671 Y82.107 I.838 J2.294 E.01767
G1 X85.121 Y78.557 E.18217
G1 X84.471 Y78.557 E.02356
G1 X88.241 Y82.327 E.19343
G1 X87.84 Y82.575 E.01712
G1 X83.822 Y78.557 E.20616
G1 X83.172 Y78.557 E.02356
G1 X87.45 Y82.835 E.21949
G1 X87.082 Y83.116 E.01681
G1 X82.523 Y78.557 E.23395
G1 X81.873 Y78.557 E.02356
G1 X86.73 Y83.414 E.2492
G1 X86.395 Y83.728 E.01667
G1 X81.224 Y78.557 E.26533
G1 X80.574 Y78.557 E.02356
G1 X86.078 Y84.061 E.2824
G1 X85.774 Y84.406 E.01669
G1 X79.925 Y78.557 E.3001
G1 X79.275 Y78.557 E.02356
G1 X85.498 Y84.779 E.31926
G2 X85.226 Y85.157 I1.658 J1.476 E.01692
G1 X78.626 Y78.557 E.33866
G1 X77.976 Y78.557 E.02356
G1 X84.989 Y85.569 E.35979
G2 X84.753 Y85.983 I1.843 J1.326 E.0173
G1 X77.327 Y78.557 E.38101
G1 X76.677 Y78.557 E.02356
G1 X84.553 Y86.432 E.40407
G2 X84.364 Y86.893 I2.208 J1.174 E.01809
G1 X76.028 Y78.557 E.42771
G1 X75.378 Y78.557 E.02356
G1 X84.203 Y87.381 E.45276
G2 X84.066 Y87.894 I2.639 J.978 E.01928
G1 X74.728 Y78.557 E.47907
G1 X74.079 Y78.557 E.02356
G1 X83.954 Y88.431 E.50665
G1 X83.881 Y89.009 E.0211
G1 X73.429 Y78.557 E.53626
G1 X72.891 Y78.557 E.01953
G1 X73.043 Y78.82 E.01102
G1 X83.841 Y89.618 E.55402
G2 X83.841 Y90.267 I3.244 J.326 E.02359
G1 X73.93 Y80.356 E.50848
G1 X74.818 Y81.893 E.06438
G1 X83.898 Y90.973 E.46587
G1 X84.033 Y91.758 E.0289
G1 X75.705 Y83.43 E.4273
G1 X76.592 Y84.967 E.06438
G1 X84.286 Y92.661 E.39477
G1 X84.293 Y92.686 E.00094
G2 X84.775 Y93.799 I6.12 J-1.986 E.04406
G1 X77.479 Y86.504 E.3743
G1 X78.367 Y88.04 E.06438
G1 X85.598 Y95.272 E.37104
G1 X86.485 Y96.809 E.06437
G1 X79.254 Y89.577 E.37103
G1 X80.141 Y91.114 E.06438
G1 X87.373 Y98.345 E.37102
G1 X88.26 Y99.882 E.06437
G1 X81.028 Y92.651 E.37102
G1 X81.916 Y94.187 E.06438
G1 X89.147 Y101.419 E.37101
G1 X90.034 Y102.955 E.06437
G1 X82.803 Y95.724 E.371
G1 X83.69 Y97.261 E.06438
G1 X90.921 Y104.492 E.37099
G1 X91.808 Y106.028 E.06437
G1 X84.577 Y98.798 E.37098
G1 X85.465 Y100.334 E.06438
G1 X92.695 Y107.565 E.37097
G1 X93.582 Y109.101 E.06437
G1 X86.352 Y101.871 E.37096
G1 X87.239 Y103.408 E.06438
G1 X94.469 Y110.638 E.37095
G1 X95.356 Y112.175 E.06437
G1 X88.126 Y104.945 E.37094
G1 X89.014 Y106.482 E.06438
G1 X96.243 Y113.711 E.37094
G1 X97.13 Y115.248 E.06437
G1 X89.901 Y108.018 E.37093
G1 X90.788 Y109.555 E.06438
G1 X98.018 Y116.784 E.37092
G1 X98.905 Y118.321 E.06437
G1 X91.675 Y111.092 E.37091
G1 X92.563 Y112.629 E.06438
G1 X100.354 Y120.419 E.39973
G1 E-1.2 F2400
;WIPE_START
G1 F9000
G1 X98.939 Y119.005
;WIPE_END
G1 X102.5 Y117.632 Z.4
G1 X146.752 Y100.568 Z.4
G1 Z.2
M73 P1 R123
G1 E1.2 F1800
G1 F4800
G1 X147.813 Y101.629 E.05446
G1 X147.576 Y102.041 E.01725
G1 X145.777 Y100.242 E.09228
G1 X144.24 Y99.355 E.06438
G1 X147.338 Y102.453 E.15893
G1 X147.1 Y102.864 E.01725
G1 X142.704 Y98.468 E.22557
G1 X141.167 Y97.58 E.06438
G1 X146.863 Y103.276 E.29222
G1 X146.625 Y103.688 E.01725
G1 X139.63 Y96.693 E.35887
G1 X138.093 Y95.806 E.06438
G1 X146.387 Y104.1 E.42552
G1 X146.149 Y104.511 E.01725
G1 X136.557 Y94.919 E.49217
G1 X135.02 Y94.031 E.06438
G1 X142.249 Y101.26 E.37089
G1 X143.428 Y101.941 E.04939
G1 X143.725 Y102.206 E.01445
G1 X143.89 Y102.546 E.01372
G1 X143.916 Y102.928 E.01386
G1 X145.912 Y104.923 E.10238
G1 X145.674 Y105.335 E.01725
G1 X143.737 Y103.398 E.09938
G1 X143.499 Y103.81 E.01725
G1 X145.436 Y105.747 E.09938
G1 X145.198 Y106.158 E.01725
G1 X143.261 Y104.222 E.09938
G1 X143.024 Y104.633 E.01725
G1 X144.961 Y106.57 E.09938
G1 X144.723 Y106.982 E.01725
G1 X142.786 Y105.045 E.09938
G1 X142.548 Y105.457 E.01725
G1 X144.485 Y107.394 E.09938
G1 X144.282 Y107.745 E.01471
G1 X144.24 Y107.798 E.00247
G1 X142.31 Y105.869 E.09901
G1 X142.073 Y106.28 E.01725
G1 X143.953 Y108.161 E.09647
G1 E-1.2 F2400
;WIPE_START
G1 F9000
G1 X142.539 Y106.746
;WIPE_END
G1 X141.727 Y103.017 Z.4
G1 X141.274 Y100.935 Z.4
G1 Z.2
G1 E1.2 F1800
G1 F4800
G1 X133.483 Y93.144 E.39972
G1 X132.623 Y92.648 E.03603
G1 X132.518 Y92.829 E.0076
G1 X139.175 Y99.486 E.34154
G1 X137.638 Y98.599 E.06438
G1 X132.281 Y93.241 E.27489
G1 X132.043 Y93.653 E.01725
G1 X136.102 Y97.711 E.20824
G1 X134.565 Y96.824 E.06438
G1 X131.805 Y94.064 E.14159
G1 X131.567 Y94.476 E.01725
G1 X133.75 Y96.659 E.112
G1 X133.699 Y96.663 E.00187
G1 X133.358 Y96.827 E.01372
G1 X133.316 Y96.875 E.00229
G1 X131.33 Y94.888 E.10193
G1 X131.092 Y95.3 E.01725
G1 X133.029 Y97.237 E.09938
G1 X132.791 Y97.648 E.01725
G1 X130.854 Y95.711 E.09938
G1 X130.616 Y96.123 E.01725
G1 X132.553 Y98.06 E.09938
G1 X132.316 Y98.472 E.01725
G1 X130.379 Y96.535 E.09938
G1 X130.141 Y96.947 E.01725
G1 X132.078 Y98.884 E.09938
G1 X131.84 Y99.295 E.01725
G1 X129.903 Y97.359 E.09938
G1 X129.665 Y97.77 E.01725
G1 X131.602 Y99.707 E.09938
G1 X131.365 Y100.119 E.01725
G1 X129.428 Y98.182 E.09938
G1 X129.19 Y98.594 E.01725
G1 X131.127 Y100.531 E.09938
G1 X130.889 Y100.943 E.01725
